X: 187
%
U:~=!turn!
T: The Fochaber's Rand
C:Marshall
O:Scotland
B:Keith Norman MacDonald : "The Skye collection of the best reels & strathspeys extant" : 1887
Z:Ralph Palmer
R:Reel
M:C|
L:1/8
K:C lydian
Tg2 (bg) afgd | Tg2 (bg)af g2 | Tg2 (bg) afge | =fdcf AFcA :|
(Bc/d/) (BG) ecdc | (Bc/d/) (BG) gB d2 | (Bc/d/) (BG) ecdB | cA=FA fA c2 |
(Bc/d/) (BG) ecdc | (Bc/d/) (BG) gB d2 | (Bc/d/) BG ecdB | cA=FA fAc2 |]


